X:1
T:Child Jesus Comes from Heavenly Height
T: Child Jesus Comes from Heavenly Height
T: Christmas Carol 
T:Peter Christian Lutkin
T:Words traslated from Hans Christian Andersen
T:by IMSLP - Public Domain
T:by IMSLP - Public Domain
T:by IMSLP - Public Domain
C:Peter Christian Lutkin
Z:Words traslated from Hans Christian Andersen
Z:by IMSLP - Public Domain
%%score [ ( 1 2 ) ( 3 4 ) ] 5 6
L:1/8
Q:1/4=108
M:4/4
K:C
V:1 treble nm="S A"
V:2 treble 
V:3 bass nm="T B"
V:4 bass 
V:5 treble nm="Alto" snm="A."
V:6 bass nm="Bass" snm="B."
V:1
!mf!"^Moderato" c2 | B2 A2 G2 E2 | A3 A G2!p! E2 | E2 E2 E2 E2 | E4 E2!mf! c2 | B2 A2 G2!<(! E2 | %6
w: Child|Je\- sus comes from|heav'n\- ly height To|save us from sins|keep\- ing; On|man\- ger straw, in|
 A3!<)!!>(! A G2!>)!!p! E2 | E2 E2 E2 E2 |!>(! E4 E2!>)!!mf! E2 | F2 G2 E2 C2 | F3 F E2 E2 | %11
w: dark\- * night, The|Bless\- ed One lies|sleep\- ing. The|star smiles down, the|an\- gels greet, The|
 A2 B2 G2 E2 | c3 c B2!f! d3/2 d/ | (e4 c2 d2 | B2 cB) A2!mf! A3/2 A/ | d4 A2 B2 | %16
w: ox\- en kiss the|ba\- * feet: Al\- le\-|lu _ _|_ _ _ ia, Al\- le\-|lu\- ia, Child|
 c4 A2!f! A3/2 A/ | (f4 d2 e2 | c2 d2) B2!ff! c3/2 c/ | c2 d2 B3 c | !fermata!c6 ||!mf! c2 | %22
w: Je\- sus! Al\- le\-|lu _ _|_ _ ia, Al\- le\-|lu\- ia, Christ the|Lord!|Take|
 B2 A2 G2!<(! E2 | A3!<)!!>(! A G2!>)!!p! E2 | E2 E2 E2 E2 | E4 E2!mf! c2 | B2 A2 G2 E2 | %27
w: cour\- age, soul in|grief cast down, For\-|get the bit\- ter|deal\- ing: A|Child is born in|
 A3 A G2!p! E2 | E2 E2 E2 E2 | E4 E2!mf! E2 | F2 F2 E2 C2 | A3 A G4 | c2 c c!<(! B2 G2!<)! | %33
w: Da\- * town, To|touch all souls with|heal\- ing. Then|let us go and|seek the Child,|Chil\- dren like Him, meek,|
 e3 e d2!f! d3/2 d/ | (e4 c2 d2 | B2 cB) A2!mf! A3/2 A/ | d4 A2 B2 | c4 A2!f! A3/2 A/ | (f4 d2 e2 | %39
w: un\- \- filed. Al\- le\-|lu _ _|_ _ _ ia, Al\- le\-|lu\- ia, Child|Je\- sus! Al\- le\-|lu _ _|
 c2 dc) B2!ff! c3/2 c/ | c2 d2 B3 c | c6 || (c2 | B2 A2 G2) E2 | A8 | !fermata!G8 |] %46
w: _ _ _ ia, Al\- le\-|lu\- ia, Christ the|Lord!|A|_ _ _ men,|A|men.|
V:2
 c2 | B2 A2 G2 C2 | C3 D E2 E2 | E2 E2 E2 E2 | E4 E2 E2 | G2 F2 D2 C2 | C2 D2 E2 E2 | E2 E2 E2 E2 | %8
w: ||||||* some * *||
 E4 E2 B,2 | C2 D2 C2 C2 | C2 D2 E2 E2 | E2 ^D2 E2 E2 | E2 ^F2 G2 G3/2 G/ | (G4 E2 F2 | %14
w: ||||* by's * * *||
 D2 D2) C2 ^C3/2 C/ | D4 D2 F2 | E4 E2 A3/2 A/ | (A4 G4 | F4) E2 E3/2 E/ | E2 F2 D3 E | E6 || c2 | %22
w: ||||||||
 B2 A2 G2 C2 | C3 D E2 E2 | E2 E2 E2 E2 | E4 E2 E2 | G2 F2 D2 C2 | C2 D2 E2 E2 | E2 E2 E2 E2 | %29
w: |||||* vid's * *||
 E4 E2 E2 | A,2 B,2 C2 C2 | C2 D2 E4 | E2 ^F F G2 G2 | E2 ^F2 G2 G3/2 G/ | (G4 E2 F2 | %35
w: ||||* de\- * * *||
 D2 D2) C2 ^C3/2 C/ | D4 A2 A2 | A4 E2 A3/2 A/ | (A4 B4 | A4) ^G2 =G3/2 G/ | A2 A2 G3 G | G6 || %42
w: |||||||
 (F2 | G2 F2 D2) C2 | (C4 D4) | E8 |] %46
w: ||||
V:3
!mf! C2 | B,2 A,2 G,2 G,2 | A,3 B, C2!p! C2 | B,2 A,2 ^G,2 A,2 | B,4 E,2!mf! C2 | %5
 E2 C2 B,2!<(! C2 | A,2 B,2!<)! C2!p! C2 | B,2 A,2 ^G,2 A,2 |!>(! B,4 E,2!>)!!mf! ^G,2 | %9
 A,2 B,2 G,2 G,2 | A,2 B,2 C2 C2 | C2 B,2 B,2 B,2 | C2 D2 D2!f! B,3/2 B,/ | (B,4 A,4 | %14
 G,4) A,2!mf! A,3/2 G,/ | F,4 A,2 A,2 | A,4 C2!f! A,3/2 A,/ | (A,4 B,2 C2 | %18
 A,2 B,A,) ^G,2!ff! =G,3/2 G,/ | A,2 A,2 G,3 G, | G,6 ||!mf! C2 | B,2 A,2 G,2!<(! G,2 | %23
 A,3!<)!!>(! B,!>)! C2!p! C2 | B,2 A,2 ^G,2 A,2 | B,4 E,2!mf! C2 | E2 C2 B,2 C2 | %27
 A,2 B,2 C2!p! C2 | B,2 A,2 ^G,2 A,2 | B,4 E,2!mf! E,2 | F,2 ^G,2 A,2 A,2 | A,2 B,2 C4 | %32
 C2 ^D D!<(! E2 B,2!<)! | C2 A,2 B,2!f! B,3/2 B,/ | (B,4 A,4 | G,4) A,2!mf! F3/2 E/ | D4 F2 D2 | %37
 E4 C2!f! A,3/2 A,/ | D4 F2 E2 | C2 D2 E2!ff! E3/2 E/ | E2 F2 D3 E | E6 || (C2 | E2 C2 B,2) C2 | %44
 (A,4 B,4) | C8 |] %46
V:4
 C2 | B,2 A,2 G,2 C,2 | F,3 F, C,2 E,2 | D,2 C,2 B,,2 A,,2 | ^G,,4 E,2 A,2 | E,2 F,2 G,2 A,2 | %6
 F,3!>(! F, C,2!>)! E,2 | D,2 C,2 B,,2 A,,2 | ^G,,4 E,2 E,2 | D,2 G,,2 C,2 E,2 | D,2 G,,2 C,2 G,2 | %11
 ^F,2 B,,2 E,2 G,2 | A,2 D,2 G,2 G,3/2 G,/ | (E,4 A,2 D,2 | G,2 C,2) F,2 F,3/2 E,/ | D,4 F,2 D,2 | %16
 A,,4 A,2 A,3/2 A,/ | (D,4 G,2 C,2 | F,2 B,,2) E,2 C,3/2 C,/ | A,2 D,2 G,3 C, | !fermata!C,6 || %21
 C2 | B,2 A,2 G,2 C,2 | F,3 F, C,2 E,2 | D,2 C,2 B,,2 A,,2 | ^G,,4 E,2 A,2 | E,2 F,2 G,2 A,2 | %27
 F,3 F, C,2 E,2 | D,2 C,2 B,,2 A,,2 | ^G,,4 E,2 E,2 | D,2 D,2 C,2 A,,2 | F,3 F, C,4 | %32
 A,2 A, A, G,2 E,2 | C,3 C, G,2 G,3/2 G,/ | (E,4 A,2 D,2 | G,2 C,2) F,2 A,3/2 G,/ | F,4 D,2 F,2 | %37
 A,4 A,2 A,3/2 A,/ | (D,4 G,2 C,2 | F,2 B,,2) E,2 C,3/2 C,/ | A,2 D,2 G,3 C, | C,6 || (A,2 | %43
 E,2 F,2 G,2) A,2 | F,8 | !fermata!C,8 |] %46
V:5
 c2 | B2 A2 G2 C2 | C3 D E2 E2 | E2 E2 E2 E2 | E4 E2 E2 | G2 F2 D2 C2 | C2 D2 E2 E2 | E2 E2 E2 E2 | %8
w: ||||||* some * *||
 E4 E2 B,2 | C2 D2 C2 C2 | C2 D2 E2 E2 | E2 ^D2 E2 E2 | E2 ^F2 G2 G3/2 G/ | (G4 E2 F2 | %14
w: ||||* by's * * *||
 D2 D2) C2 ^C3/2 C/ | D4 D2 F2 | E4 E2 A3/2 A/ | (A4 G4 | F4) E2 E3/2 E/ | E2 F2 D3 E | E6 || c2 | %22
w: ||||||||
 B2 A2 G2 C2 | C3 D E2 E2 | E2 E2 E2 E2 | E4 E2 E2 | G2 F2 D2 C2 | C2 D2 E2 E2 | E2 E2 E2 E2 | %29
w: |||||* vid's * *||
 E4 E2 E2 | A,2 B,2 C2 C2 | C2 D2 E4 | E2 ^F F G2 G2 | E2 ^F2 G2 G3/2 G/ | (G4 E2 F2 | %35
w: ||||* de\- * * *||
 D2 D2) C2 ^C3/2 C/ | D4 A2 A2 | A4 E2 A3/2 A/ | (A4 B4 | A4) ^G2 =G3/2 G/ | A2 A2 G3 G | G6 || %42
w: |||||||
 (F2 | G2 F2 D2) C2 | (C4 D4) | E8 |] %46
w: ||||
V:6
 C2 | B,2 A,2 G,2 C,2 | F,3 F, C,2 E,2 | D,2 C,2 B,,2 A,,2 | ^G,,4 E,2!mf! A,2 | E,2 F,2 G,2 A,2 | %6
 F,3 F, C,2 E,2 | D,2 C,2 B,,2 A,,2 | ^G,,4 E,2 E,2 | D,2 G,,2 C,2 E,2 | D,2 G,,2 C,2 G,2 | %11
 ^F,2 B,,2 E,2 G,2 | A,2 D,2 G,2 G,3/2 G,/ | (E,4 A,2 D,2 | G,2 C,2) F,2 F,3/2 E,/ | D,4 F,2 D,2 | %16
 A,,4 A,2 A,3/2 A,/ | (D,4 G,2 C,2 | F,2 B,,2) E,2 C,3/2 C,/ | A,2 D,2 G,3 C, | !fermata!C,6 || %21
 C2 | B,2 A,2 G,2 C,2 | F,3 F, C,2 E,2 | D,2 C,2 B,,2 A,,2 | ^G,,4 E,2 A,2 | E,2 F,2 G,2 A,2 | %27
 F,3 F, C,2 E,2 | D,2 C,2 B,,2 A,,2 | ^G,,4 E,2 E,2 | D,2 D,2 C,2 A,,2 | F,3 F, C,4 | %32
 A,2 A, A, G,2 E,2 | C,3 C, G,2 G,3/2 G,/ | (E,4 A,2 D,2 | G,2 C,2) F,2 A,3/2 G,/ | F,4 D,2 F,2 | %37
 A,4 A,2 A,3/2 A,/ | (D,4 G,2 C,2 | F,2 B,,2) E,2 C,3/2 C,/ | A,2 D,2 G,3 C, | C,6 || (A,2 | %43
 E,2 F,2 G,2) A,2 | F,8 | !fermata!C,8 |] %46

